lib/brands/logos/cdw.svg

<svg xmlns="http://www.w3.org/2000/svg" fill="none" aria-hidden="true" viewBox="0 0 146 81"><g id="CDW"><g id="Union"><path fill="#E31836" d="M73.9917 21.2409H64.0407L64.1432 49.2885H76.1924L82.6632 31.0916H82.7408L81.4774 49.2885H93.5269L105.553 21.2409H95.6026L89.4891 38.8483H89.4119L90.5499 21.2409H79.0444L72.6964 38.8483H72.6192L73.9917 21.2409Z"/><path fill="#E31836" fill-rule="evenodd" d="M62.9755 15.8216C59.0548 17.4633 55.1696 19.3821 51.6056 21.2966C51.0325 21.2597 50.4323 21.2409 49.8042 21.2409H36.6397L34.2052 32.6943C32.0545 34.46 30.0819 36.2539 28.3045 38.0562H21.1103C19.7015 41.8413 18.5496 42.6925 17.1112 42.6925C14.3116 42.6925 14.7534 39.522 15.657 35.2681C16.6106 30.782 17.5074 27.8437 20.3843 27.8437C21.7477 27.8255 22.7831 28.4468 22.1367 33.0285H32.3446C34.1814 23.394 28.7919 20.5194 21.7066 20.5194C12.2132 20.5194 5.74027 26.4257 4.15842 35.152C2.27159 44.0308 5.55355 50.0168 15.3997 50.0168C16.9527 50.0168 18.5032 49.8487 20.0002 49.4925C17.5593 54.8812 17.4401 59.958 19.6808 64.3536C26.7228 78.1736 58.2186 78.9862 89.6553 65.8216C97.4871 62.5396 105.196 58.3426 111.348 54.2389C129.88 41.8777 137.932 27.3816 132.645 17.0052C125.603 3.18511 94.4098 2.65478 62.9755 15.8216ZM22.128 48.8417C19.7649 53.5665 18.9879 58.1432 20.8235 61.7429C27.0166 73.8992 55.7879 73.7263 83.4395 62.1435C90.3951 59.2325 96.6997 55.8344 102.146 52.1859C118.349 41.3315 124.629 29.0864 119.992 19.9868C113.797 7.83049 88.656 6.53998 61.0067 18.1204C58.4389 19.1961 55.962 20.33 53.5845 21.5117C61.5544 22.7694 63.1296 28.2908 61.5805 35.5776C59.7802 44.0536 53.1364 49.2953 44.5011 49.2953H30.6765L33.8263 34.4768C32.4022 35.6826 31.144 36.8039 29.9399 38.0562H31.5528C30.0325 43.7979 26.432 47.2118 22.128 48.8417ZM46.1604 27.6092H47.2461C49.0328 27.6092 49.9409 28.2693 50.4007 29.3959C50.89 30.5635 50.701 32.546 50.1229 35.2681C49.5447 37.9902 48.8916 39.9727 47.9038 41.138C46.9661 42.2669 45.778 42.927 43.9913 42.927H42.9033L46.1604 27.6092Z" clip-rule="evenodd"/><path fill="#E31836" fill-rule="evenodd" d="M139.409 23.6808H139.799L140.395 24.787H141.078L140.422 23.6808C140.9 23.6194 141.158 23.4213 141.158 22.9252C141.158 22.6452 141.085 22.347 140.841 22.1946C140.641 22.0762 140.343 22.0694 140.11 22.0694H138.813V24.787H139.409V23.6808ZM139.409 23.1823V22.5678H139.992C140.249 22.5678 140.529 22.5678 140.529 22.8455C140.529 23.1163 140.422 23.1892 140.124 23.1823H139.409Z" clip-rule="evenodd"/><path fill="#E31836" fill-rule="evenodd" d="M139.858 25.9933C141.223 25.9933 142.35 24.8734 142.35 23.501C142.35 22.1285 141.223 21.0087 139.858 21.0087C138.481 21.0087 137.368 22.1285 137.368 23.501C137.368 24.8734 138.481 25.9933 139.858 25.9933ZM139.858 21.6711C140.821 21.6711 141.688 22.4335 141.688 23.501C141.688 24.5616 140.821 25.3309 139.858 25.3309C138.886 25.3309 138.03 24.5616 138.03 23.501C138.03 22.4335 138.886 21.6711 139.858 21.6711Z" clip-rule="evenodd"/></g></g></svg>

<svg xmlns="http://www.w3.org/2000/svg" fill="none" aria-hidden="true" viewBox="0 0 146 81"><g fill="#E31836"><path d="M73.992 21.24H64.04l.102 28.049h12.05l6.47-18.197h.078l-1.264 18.197h12.05l12.026-28.048h-9.95l-6.114 17.607h-.077l1.138-17.607H79.044l-6.348 17.607h-.077l1.373-17.607Z"/><path fill-rule="evenodd" d="M62.975 15.822c-3.92 1.641-7.805 3.56-11.37 5.475a28.056 28.056 0 0 0-1.8-.056H36.64l-2.435 11.453a76.193 76.193 0 0 0-5.9 5.362H21.11c-1.409 3.785-2.56 4.637-3.999 4.637-2.8 0-2.358-3.171-1.454-7.425.954-4.486 1.85-7.424 4.727-7.424 1.364-.018 2.4.603 1.753 5.184h10.208c1.836-9.634-3.553-12.509-10.638-12.509-9.494 0-15.967 5.907-17.549 14.633C2.272 44.031 5.554 50.017 15.4 50.017c1.553 0 3.103-.168 4.6-.525-2.44 5.39-2.56 10.466-.32 14.862 7.043 13.82 38.539 14.632 69.975 1.468 7.832-3.282 15.541-7.48 21.693-11.583 18.532-12.361 26.584-26.857 21.297-37.234-7.042-13.82-38.235-14.35-69.67-1.183Zm-40.847 33.02c-2.363 4.724-3.14 9.301-1.305 12.9 6.194 12.157 34.965 11.984 62.617.402 6.955-2.911 13.26-6.31 18.706-9.958 16.203-10.855 22.483-23.1 17.846-32.2C113.797 7.83 88.656 6.54 61.007 18.12a126.493 126.493 0 0 0-7.422 3.392c7.97 1.257 9.545 6.779 7.995 14.066-1.8 8.476-8.444 13.717-17.079 13.717H30.677l3.15-14.818c-1.425 1.206-2.683 2.327-3.887 3.58h1.613c-1.52 5.74-5.121 9.155-9.425 10.785ZM46.16 27.609h1.086c1.787 0 2.695.66 3.155 1.787.489 1.168.3 3.15-.278 5.872-.578 2.722-1.231 4.705-2.22 5.87-.937 1.129-2.125 1.789-3.912 1.789h-1.088l3.257-15.318Zm93.249-3.929h.39l.596 1.107h.683l-.656-1.106c.478-.062.736-.26.736-.756 0-.28-.073-.578-.317-.73-.2-.119-.498-.126-.731-.126h-1.297v2.718h.596v-1.106Zm0-.498v-.614h.583c.257 0 .537 0 .537.277 0 .271-.107.344-.405.337h-.715Z" clip-rule="evenodd"/><path fill-rule="evenodd" d="M139.858 25.993a2.502 2.502 0 0 0 2.492-2.492 2.502 2.502 0 0 0-2.492-2.492 2.493 2.493 0 0 0 0 4.984Zm0-4.322c.963 0 1.83.762 1.83 1.83 0 1.06-.867 1.83-1.83 1.83a1.82 1.82 0 0 1-1.828-1.83c0-1.068.856-1.83 1.828-1.83Z" clip-rule="evenodd"/></g></svg>
